godot/editor/icons/Rect2i.svg

<svg height="12" viewBox="0 0 16 12" width="16" xmlns="http://www.w3.org/2000/svg"><path d="m9 2v2h-1c-1.7267 0-3 1.3359-3 3 0 1.6569 1.3431 3 3 3h1v-2h-1c-.55228 0-1-.44772-1-1s.44772-1 1-1h1v1c0 1.6569 1.3431 3 3 3v-2c-.55228 0-.93526-.45152-1-1v-1h1v-2h-1v-2zm-5 2c-1.6569 0-2.9547 1.3438-3 3v3h2v-3c0-.55228.44772-1 1-1h1v-2z" fill="#f1738f"/><path d="m13 2v2h2v-2zm0 4v4h2v-4z" fill="#5abbef"/></svg>

<svg height="12" viewBox="0 0 16 12" width="16" xmlns="http://www.w3.org/2000/svg"><path d="M9 2v2H8a3 3 0 0 0 0 6h1V8H8a1 1 0 0 1 0-2h1v1a3 3 0 0 0 3 3V8a1 1 0 0 1-1-1V6h1V4h-1V2zM4 4a3 3 0 0 0-3 3v3h2V7a1 1 0 0 1 1-1h1V4z" fill="#f1738f"/><path d="M13 2v2h2V2zm0 4v4h2V6z" fill="#5abbef"/></svg>
